icons/4_Outdated/OwnCube v1.svg

<svg xmlns="http://www.w3.org/2000/svg" width="1024" height="1024" fill="none">
   <g clip-path="url(#a)">
      <path fill="#728DBE" d="M512 1024c282.77 0 512-229.23 512-512S794.77 0 512 0 0 229.23 0 512s229.23 512 512 512Z"/>
      <path fill="#fff" d="M495.14 496.75c9.27 5.38 24.44 5.38 33.72 0l169.44-98.33c9.27-5.38 9.26-14.17 0-19.53l-169.4-97.81c-9.28-5.36-24.47-5.36-33.76 0l-169.46 97.83c-9.29 5.36-9.29 14.15 0 19.53l169.46 98.31Zm9.55 41.93c0-10.72-7.59-23.89-16.86-29.27l-170-98.6c-9.27-5.38-16.86-1-16.86 9.71v196.8c0 10.72 7.59 23.87 16.88 29.24l169.93 98.11c9.29 5.36 16.88 1 16.88-9.75V538.68h.03Zm31.48-29.27c-9.27 5.38-16.86 18.56-16.86 29.27v196.23c0 10.72 7.6 15.11 16.88 9.75l169.92-98.11C715.4 641.19 723 628 723 617.31V420.47c0-10.72-7.59-15.09-16.86-9.71l-169.97 98.65Z"/>
   </g>
   <defs>
      <clipPath id="a">
         <path fill="#fff" d="M0 0h1024v1024H0z"/>
      </clipPath>
   </defs>
</svg>

<svg width="1024" height="1024" viewBox="0 0 1024 1024" fill="none" xmlns="http://www.w3.org/2000/svg">
<g clip-path="url(#clip0_2_3072)">
<path d="M512 1024C794.77 1024 1024 794.77 1024 512C1024 229.23 794.77 0 512 0C229.23 0 0 229.23 0 512C0 794.77 229.23 1024 512 1024Z" fill="#728DBE"/>
<path d="M495.14 496.75C504.41 502.13 519.58 502.13 528.86 496.75L698.3 398.42C707.57 393.04 707.56 384.25 698.3 378.89L528.9 281.08C519.62 275.72 504.43 275.72 495.14 281.08L325.68 378.91C316.39 384.27 316.39 393.06 325.68 398.44L495.14 496.75ZM504.69 538.68C504.69 527.96 497.1 514.79 487.83 509.41L317.83 410.81C308.56 405.43 300.97 409.81 300.97 420.52V617.32C300.97 628.04 308.56 641.19 317.85 646.56L487.78 744.67C497.07 750.03 504.66 745.67 504.66 734.92V538.68H504.69ZM536.17 509.41C526.9 514.79 519.31 527.97 519.31 538.68V734.91C519.31 745.63 526.91 750.02 536.19 744.66L706.11 646.55C715.4 641.19 723 628 723 617.31V420.47C723 409.75 715.41 405.38 706.14 410.76L536.17 509.41Z" fill="white"/>
</g>
<defs>
<clipPath id="clip0_2_3072">
<rect width="1024" height="1024" fill="white"/>
</clipPath>
</defs>
</svg>
